X:177
T:Dawted Mary
R:Strathspey
B:The Athole Collection
M:C|
L:1/8
K:B Minor
f|F>B d<B de/f/ b2|a>fe>d c<A c2|F>Bd>B de/f/ b2|a>fe>c ~f2 B:|
f|d<f de/f/ d<B B>b|a>fe>d c<A A>f|d<f de/f/ d<B B>b|a>fe>c ~f2 B>f|
d<f de/f/ d<B B>b|a>fe>d c<A A>c|d>ef>^g a<fb<g|a>fe>c ~f2 B||
|:f|F>Bd>B de/f/ b2|a>fe>d c<A c2|F>Bd>B de/f/ b2|a>fe>c ~f2 B:|
|:f|d>ef>^g a>=gf>b|a>fe>d c<A A>c|d>ef>^g a<fb<g|a>fe>c ~f2B:|

